X: 20971
Q: "Allegretto."
U: p=!crescendo(!
U: P=!crescendo)!
U: Q=!diminuendo(!
U: q=!diminuendo)!
M: 3/4
L: 1/8
K: G
[|!p!\
(.f.g .a2) z2 | (.g.a .b2) z2 | (.a.b .c'2) .b2 | a!ff!z d'z z2 !p![|"Andantino."\
(((3Bdg) b3 g) | (fAc) e3 (d | G4) z2 !p!|]
[|"Allegretto."\
(.^d.e .f2) z2 | (.e.f .g2) z2 | (.f.g .a2 .g2) | f!ff!z [bfdB]z Hz2 |[| (3(bae) c4 |\
(3(agd) B3 G | (FAcedc) | (B/pd/g/b/) Pd'4- |\
d'/(Qc'/a/e/ qc4) | (c'/Qb/g/d/ qB3 G) | (FAcedF) |]\
[M:9/8] (G3- GDB ADd) |
d3- d/.d/.d/.d/(3(^c/d/e/) (dAB) |\
(G3- GDB ADd) |\
d3- d/.d/.d/.d/(3(^c/d/e/) (dAB) |\
(G3- GDB GdB) |\
(g3- g.d.b .g.d'.b) |\
(g/d/b/g/d/B/ g/d/B/G/d/B/ G/D/B/G/D/B,/) |\
[GG,]z2 !ff!z.[gdBG]z Hz2z |]


